assets/icons/folder_icons/folder-vault-open.svg

<?xml version="1.0" encoding="UTF-8"?><svg id="Done" xmlns="http://www.w3.org/2000/svg" xmlns:xlink="http://www.w3.org/1999/xlink" viewBox="0 0 14 14"><defs><style>.cls-1{fill:#a040ff;}.cls-2{opacity:.3;}.cls-2,.cls-3{isolation:isolate;}.cls-4{fill:url(#linear-gradient);}.cls-5{fill:#d9d9d9;}.cls-3{fill:url(#radial-gradient);opacity:.711;}</style><radialGradient id="radial-gradient" cx="114.287" cy="-117.4761" fx="114.287" fy="-117.4761" r="1.5875" gradientTransform="translate(-240.606 -480.7402) rotate(33.6901) scale(4.1287 -2.2712)" gradientUnits="userSpaceOnUse"><stop offset="0" stop-color="#000"/><stop offset="1" stop-color="#000" stop-opacity="0"/></radialGradient><linearGradient id="linear-gradient" x1="69.2569" y1="-136.2097" x2="69.7861" y2="-136.2097" gradientTransform="translate(-256.7584 -506.3085) scale(3.7795 -3.7795)" gradientUnits="userSpaceOnUse"><stop offset="0" stop-color="#000"/><stop offset="1" stop-color="#000" stop-opacity="0"/></linearGradient></defs><g id="Layer_38"><path id="path481" class="cls-1" d="m0,0v12l4.1131,1.9355c.3105.1468.681.0135.8275-.2976.0393-.0834.0596-.1746.0594-.2668v-2.3711h6V1c-.004-.745-.4086-.9893-1-1H0Z"/><g id="g486"><path id="path482" class="cls-2" d="m-.0179,0l4.0855,1.5882c.5621.2185.9324.7597.9324,1.3628v8.049h6V1c-.004-.745-.4093-.9893-1.0016-1H-.0179Z"/><path id="path483" class="cls-3" d="m10,11c.7057-.0798,1.0812-.3798,1-.9844v-5.0156c.6647-.0018.998-.3352,1-1V1C12.0053.3601,11.6907.0097,11,0H0v11h10Z"/><g id="g485"><path id="path484" d="m3,4h11v10h-3.9515l-1.0485-1h-1.0828l-.8739,1h-2.6774l-1.3659-1V4Z"/><path id="path485" class="cls-5" d="m4,5v7s0,1,0,1h2l1-1h3l1,1h2V5H4Zm2,1h2s3,0,3,0v5s-5,0-5,0l-1,1v-1.9687s0-1.0312,0-1.0312h1v1h4v-3h-4v1h-1v-1l1-1Z"/></g><path id="path486" class="cls-4" d="m5,4h2v9h-2V4Z"/></g><path class="cls-1" d="m5,2.9511c.0005-.6031-.3694-1.1446-.9315-1.3632L0,.0056v11.994l4.1131,1.9355c.3105.1468.681.0135.8275-.2976.033-.0701.0446-.1472.0499-.2242l.0095-10.4621Z"/></g></svg>

<svg xmlns="http://www.w3.org/2000/svg" id="Done" viewBox="0 0 14 14"><defs><radialGradient id="radial-gradient" cx="114.287" cy="-117.476" r="1.587" fx="114.287" fy="-117.476" gradientTransform="matrix(3.43528 2.2902 1.25984 -1.88975 -240.606 -480.74)" gradientUnits="userSpaceOnUse"><stop offset="0"/><stop offset="1" stop-opacity="0"/></radialGradient><linearGradient id="linear-gradient" x1="69.257" x2="69.786" y1="-136.21" y2="-136.21" gradientTransform="matrix(3.7795 0 0 -3.7795 -256.758 -506.308)" gradientUnits="userSpaceOnUse"><stop offset="0"/><stop offset="1" stop-opacity="0"/></linearGradient><style>.cls-1{fill:#a040ff}</style></defs><g id="Layer_38"><path id="folder" d="M0 0v12l4.113 1.936A.62.62 0 0 0 5 13.37V11h6V1c-.004-.745-.409-.99-1-1z" class="cls-1"/><path id="folder_shadow" d="m-.018 0 4.086 1.588c.562.219.932.76.932 1.363V11h6V1c-.004-.745-.41-.99-1.002-1z" opacity=".3" style="isolation:isolate"/><path id="flap_shadow" fill="url(#radial-gradient)" d="M10 11c.706-.08 1.081-.38 1-.984V5q.997-.003 1-1V1c.005-.64-.31-.99-1-1H0v11z" opacity=".711" style="isolation:isolate"/><g id="g486"><path id="path484" d="M3 4h11v10h-3.951L9 13H7.917l-.874 1H4.366L3 13z"/><path id="path485" fill="#d9d9d9" d="M4 5v8h2l1-1h3l1 1h2V5zm2 1h5v5H6l-1 1V9.001h1v1h4V7H6v1H5V7z"/></g><path id="icon_shadow" fill="url(#linear-gradient)" d="M5 4h2v9H5z"/><path id="flap" d="M5 2.951c0-.603-.37-1.145-.931-1.363L0 .006V12l4.113 1.935c.31.147.681.014.828-.298a.6.6 0 0 0 .05-.224z" class="cls-1"/></g></svg>
